X:0236
M:6/8
L:1/8
Q:3/8=120
K:D
f|gag g2e|fgf f2d|efg Bcd| d3  c2
e|fga efg|fga efg|fgf ede|(d3  d2)||

